X:1
T:James Gibb editions
T:Stabat Mater - Tartini
T:#
%%score [ 1 2 3 ]
L:1/8
Q:1/4=120
M:2/2
K:F
V:1 treble nm="Soprano I" snm="S I"
V:2 treble nm="Soprano II" snm="S II"
V:3 treble nm="Alto" snm="A"
V:1
"^Stabat Mater""^Giuseppe Tartini\n(1692-1770)" A4 (A2 B2) | (c2 d2) c4 | d4 c2 (d2 | c4 B4) | A8 | %5
w: Sta- bat *|Ma\- * ter|do- lo- ro\-||sa|
 c4 (B2 A2) | d4 c4 | B4 A4 | A4 G4 | A4 (A2 B2) |[M:2/2] c4 (d2 B2) | (A4 G2) G2 | F8 || %13
w: Jux- ta *|cru- cem|la- cri-|mo- sa,|Dum pen\- *|de- bat *|Fi\- * li-|us.|
[M:2/4] F2 G2 | A2 G2 | A2 c2 | B2 A2 | A2 G2 | F2 E2 | D2 E2 | D2 C2 |[M:2/4] G2 F2 | G2 A2 | %23
w: Cu- jus|a- ni-|mam ge-|men- tem,|Con- tri-|sta- tam,|et do-|len- tem,|Per tran-|si- vit|
 G3 F | F4 ||[M:2/2] (c2 d2) _e4 | _e4 d4 | (d2 c2) (d2 f2) | d4 c4 | c4 (d2 c2) | B4 (c2 B2) | %31
w: gla- di-|us.|O * quam|tri- stis|et * af\- *|fli- cta|Fu- it *|il- la *|
 A4 (B2 A2) |[M:2/2] A4 G4 | (A2 B2) c4 | (d2 e2) f4 | d4 c4 | c6 c2 | A8 ||[M:2/4] F2 G2 | A2 G2 | %40
w: be- ne\- *|di- cta|Ma\- * ter,|Ma\- * ter|U- ni-|ge- ni-|ti!|Quae moe-|re- bat,|
 A2 c2 | B2 A2 |[M:2/4] A2 G2 | F2 E2 | D2 E2 | D2 C2 | G2 F2 | G2 A2 | G3 F | F4 || %50
w: et do-|le- bat,|Pi- a|Ma- ter|dum vi-|de- bat|Na- ti|poe- nas|in- cly-|ti.|
[M:2/2] c4 (d2 ef) | (e2 d2) c4 | c4 (d2 ef) |[M:2/2] (e2 d2) c4 | d4 d4 | d4 c4 | f4 f4 | f4 e4 | %58
w: Quis est * *|ho\- * mo|qui non * *|fle\- * ret,|Ma- trem|Chri- sti|si vi-|de- ret|
 _e8 | d4 d4 | d8 | c4 c2 A2 | (G2 A2) B4 | A8 ||[M:2/4] F2 G2 | A2 G2 | A2 c2 | B2 A2 | A2 G2 | %69
w: In|tan- to,|in|tan- to sup-|pli\- * ci-|o?|Quis non|pos- set|con- tri-|sta- ri,|Chri- sti|
 F2 E2 | D2 E2 | D2 C2 | G2 F2 | G2 A2 | G3 F | F4 ||[M:2/2] c4 d4 | (c2 B2) (A2 c2) | %78
w: Ma- trem|con- tem-|pla- ri|Do- len-|tem cum|Fi- li-|o?|Pro pec-|ca\- * tis *|
 (B2 A2) (G2 B2) | A4 A4 | c4 c4 | c4 c4 | ^c4 c4 | d4 A4 | f4 e4 | d4 ^c4 |[M:2/2] d4 =c4 | %87
w: su\- * ae *|gen- tis|Vi- dit|Je- sum|in tor-|men- tis,|Et fla-|gel- lis,|et fla-|
 B4 A4 | (A4 G2) G2 | A8 ||[M:2/4] F2 G2 | A2 G2 | A2 c2 | B2 A2 | A2 G2 | F2 E2 | D2 E2 | D2 C2 | %98
w: gel- lis|sub\- * di-|tum.|Vi- dit|su- um|dul- ce|na- tum,|Mo- ri-|en- do|de- so-|la- tum,|
[M:2/4] G2 F2 | G2 A2 | G3 F | F4 ||[M:2/2] c4 c4 | c4 c4 | f6 f2 | (e2 d2) c4 | %106
w: Dum e-|mi- sit|spi- ri-|tum.|E- ja|Ma- ter,|fons a-|mo\- * ris,|
"^me -   -  sen - ti    -   re" _e6 e2 | (d2 c2) (B2 c2) |[M:2/2] d6 d2 | d4 c4 | c4 =B4 | %111
w: Me sen-|ti\- * re *|vim do-|lo- ris|Fac, ut|
 (c2 d2) _e4 | B4 A4 | B4 c4 | d6 d2 | c8 ||[M:2/4] F2 G2 | A2 G2 | A2 c2 | B2 A2 |[M:2/4] A2 G2 | %121
w: te\- * cum,|fac ut|te- cum|lu- ge-|am.|Fac ut|ar- de-|at cor|me- um|In a-|
 F2 E2 | D2 E2 | D2 C2 | G2 F2 | G2 A2 | G3 F | F4 ||[M:2/2] c4 c4 | c4 c4 | d4 c4 | (c6 B2) | %132
w: man- do|Chris- tum|De- um,|Ut si-|bi com-|pla- ce-|am.|San- cta|Ma- ter,|i- stud|a\- *|
[M:2/2] A8 | c4 c4 | c4 c4 | f4 f4 | (e2 d2) c4 | d8 | c8 | B8 | A8 | G6 G2 | A8 ||[M:2/4] F2 G2 | %144
w: gas,|Cru- ci-|fi- xi|fi- ge|pla\- * gas|Cor-|di|me-|o|va- li-|de.|Tu- i|
 A2 G2 |[M:2/4] A2 c2 | B2 A2 | A2 G2 | F2 E2 | D2 E2 | D2 C2 | G2 F2 | G2 A2 | G3 F | F4 || %155
w: na- ti|vul- ne-|ra- ti,|Tam di-|gna- ti|pro me|pa- ti,|Poe- nas|me- cum|di- vi-|de.|
[M:2/2] c4 f4 | f4 _e4 |[M:2/2] _e4 d4 | d4 c4 | c4 f4 | f4 _e4 | _e4 d4 | d4 c4 | d4 c4 | %164
w: Fac me|te- cum,|pi- e,|fle- re,|Cru- ci-|fi- xo|con- do-|le- re,|Do- nec|
 (c2 B2) A4 | f4 _e4 | d4 c4 | c4 =B4 | c8 ||[M:2/4] F2 G2 | A2 G2 | A2 c2 | B2 A2 | A2 G2 | %174
w: e\- * go,|do- nec|e- go|vi- xe-|ro.|~Jux- ta|cru- cem|te- cum|sta- re,|Et me|
 F2 E2 | D2 E2 | D2 C2 | G2 F2 | G2 A2 | G3 F |[M:2/4] F4 ||[M:2/2] c4 (B2 A2) | B4 ((c2 d2)) | %183
w: ti- bi|so- ci-|a- re|In plan-|ctu de-|si- de-|ro.|Vir- go *|vir- gi\- *|
 c6 B2 | (A2 G2) F4 | f4 f4 | _e4 (c2 d2) | _e6 e2 | d4 (B2 c2) | _d6 d2 |[M:2/2] c4 (c2 B2) | %191
w: num prae-|cla\- * ra,|Mi- hi|jam non *|sis a-|ma- ra *|Fac me|te- cum *|
 _A6 A2 | G8 ||[M:2/4] F2 G2 | A2 G2 | A2 c2 | B2 A2 | A2 G2 | F2 E2 | D2 E2 | D2 C2 | %201
w: plan- ge-|re.|~Fac, ut|por- tem|Chri- sti|mor- tem|Pas- si-|o- nis|fac con-|sor- tem,|
[M:2/4] G2 F2 | G2 A2 | G3 F | F4 ||[M:2/2] c4 f4 | _e4 ((d2 c2)) | d6 d2 | d4 c4 | c4 f4 | %210
w: Et pla-|gas re-|co- le-|re.|~Fac me|pla- gis *|vul- ne-|ra- ri,|Fac me|
 _e4 d2 c2 |[M:2/2] d4 d4 | d4 c4 | (B2 c2) ((d2 B2)) | B4 A4 | ((d2 e2)) (f2 d2) | c4 (B2 A2) | %217
w: cru- ce i-|ne- bri-|a- ri,|Et * cru\- *|o- re,|et * cru\- *|o- re *|
 G6 G2 | F8 ||[M:2/4] F2 G2 | A2 G2 | A2 c2 |[M:2/4] B2 A2 | A2 G2 | F2 E2 | D2 E2 | D2 C2 | %227
w: Fi- li-|i.|~~~Flam- mis|ne u-|rar suc-|cen- sus|Per te,|Vir- go,|sim de-|fen- sus|
 G2 F2 | G2 A2 | G3 F | F4 ||[M:2/2] c4 c4 | c4 c4 | c4 (d2 c2) |[M:2/2] (B2 A2) B4 | B4 B4 | %236
w: In di-|e ju-|di- ci-|i.|~~~Chris- te,|cum sit|hinc e\- *|xi\- * re,|Da per|
 B4 B4 | B4 (c2 B2) | (A2 G2) A4 | (c4 d2 _e2) | d4 B4 | (d4 e2 f2) | e4 c4 | d8 | c4 B2 A2 | %245
w: ma- trem|me ve\- *|ni\- * re|Ad * *|pal- mam,|ad * *|pal- mam,|ad|pal- mam vi-|
 A4 G4 | F8 ||[M:2/4] F2 G2 | A2 G2 | A2 c2 | B2 A2 | A2 G2 | F2 E2 | D2 E2 | D2 C2 | G2 F2 | %256
w: cto- ri-|ae.|~~~Quan- do|cor- pus|mo- ri-|e- tur,|Fac, ut|a- ni-|mae do-|ne- tur|Pa- ra-|
[M:2/4] G2 A2 | G3 F | F4 ||[M:2/2] (c8- | c8 | c4 B4 | A4 B2) A2 | G8- | G8 | A8 |] %266
w: di- si|glo- ri-|a.|A\-|||* * men,|A\-||men.|
V:2
 F4 (F2 G2) | (A2 B2) A4 | B4 A2 (B2 | A4 G4) | F8 | A4 (G2 F2) | B4 A4 | G4 F4 | F4 E4 | %9
w: Sta- bat *|Ma\- * ter|do- lo- ro\-||sa|Jux- ta *|cru- cem|la- cri-|mo- sa,|
 F4 (F2 G2) |[M:2/2] A4 (B2 G2) | (F4 E2) E2 | F8 ||[M:2/4] z4 | z4 | z4 | z4 | z4 | z4 | z4 | z4 | %21
w: Dum pen\- *|de- bat *|Fi\- * li-|us.|||||||||
[M:2/4] z4 | z4 | z4 | z4 ||[M:2/2] (A2 B2) c4 | c4 B4 | (B2 A2) (B2 d2) | B4 A4 | A4 (B2 A2) | %30
w: ||||O * quam|tri- stis|et * af\- *|fli- cta|Fu- it *|
 G4 (A2 G2) | F4 (G2 F2) |[M:2/2] F4 E4 | (F2 G2) A4 | (B2 c2) d4 | (B4 A2) (GF) | G6 G2 | F8 || %38
w: il- la *|be- ne\- *|di- cta|Ma\- * ter,|Ma\- * ter|U\- * ni\- *|ge- ni-|ti!|
[M:2/4] z4 | z4 | z4 | z4 |[M:2/4] z4 | z4 | z4 | z4 | z4 | z4 | z4 | z4 ||[M:2/2] A4 =B4 | c4 G4 | %52
w: ||||||||||||Quis est|ho- mo|
 A4 =B4 |[M:2/2] c4 (G2 A2) | B4 B4 | B4 A4 | A4 d4 | d4 c4 | c8 | c4 B4 | B8 | B4 A2 F2 | F4 E4 | %63
w: qui non|fle- ret, *|Ma- trem|Chri- sti|si vi-|de- ret|In|tan- to,|in|tan- to sup-|pli- ci-|
 F8 ||[M:2/4] z4 | z4 | z4 | z4 | z4 | z4 | z4 | z4 | z4 | z4 | z4 | z4 ||[M:2/2] A4 B4 | %77
w: o?|||||||||||||Pro pec-|
 (A2 G2) (F2 A2) | (G2 F2) (E2 G2) | F4 F4 | A4 A4 | A4 A4 | (G2 A2) B4 | (A2 G2) F4 | A4 (A2 G2) | %85
w: ca\- * tis *|su\- * ae *|gen- tis|Vi- dit|Je- sum|in * tor-|men\- * tis,|Et fla\- *|
 F4 G4 |[M:2/2] A4 A4 | G4 (F2 E2) | D6 D2 | ^C8 ||[M:2/4] z4 | z4 | z4 | z4 | z4 | z4 | z4 | z4 | %98
w: gel- lis,|et fla-|gel- lis *|sub- di-|tum.|||||||||
[M:2/4] z4 | z4 | z4 | z4 ||[M:2/2] A4 G4 | A4 G4 | (F2 G2 A2) =B2 | (c2 =B2) c4 | %106
w: ||||E- ja|Ma- ter,|fons * * a-|mo\- * ris,|
 (G2 F2) (G2 A2) | (B2 A2) B4 |[M:2/2] B6 B2 | B4 A4 | _A6 A2 | G4 G4 | G4 G4 | F4 A4 | B6 B2 | %115
w: Me * sen\- *|ti\- * re|vim do-|lo- ris|Fac, ut|te- cum,|fac ut|te- cum|lu- ge-|
 A8 ||[M:2/4] z4 | z4 | z4 | z4 |[M:2/4] z4 | z4 | z4 | z4 | z4 | z4 | z4 | z4 ||[M:2/2] A4 A4 | %129
w: am.|||||||||||||San- cta|
 A4 A4 | B4 A4 | G8 |[M:2/2] F8 | A4 A4 | A4 A4 | (F2 G2) (A2 =B2) | c2 =B2 c4- | c4 B4- | %138
w: Ma- ter,|i- stud|a-|gas,|Cru- ci-|fi- xi|fi\- * ge *|pla- gas Cor\-|* di|
 B4 (A4- | A4 G4- | G4) F4 | F4 E4 | F8 ||[M:2/4] z4 | z4 |[M:2/4] z4 | z4 | z4 | z4 | z4 | z4 | %151
w: * me\-||* o|va- li-|de.|||||||||
 z4 | z4 | z4 | z4 ||[M:2/2] A4 (A2 =B2) | c4 (G2 A2) |[M:2/2] B4 B4 | B4 A4 | (A2 G2) (A2 =B2) | %160
w: ||||Fac me *|te- cum, *|pi- e,|fle- re,|Cru\- * ci\- *|
 c4 (G2 A2) | _B4 B4 | B4 A4 | B4 A4 | G4 F4 | (A2 B2) c4 | B4 A4 | A4 (G2 F2) | E8 ||[M:2/4] z4 | %170
w: fi- xo *|con- do-|le- re,|Do- nec|e- go,|do\- * nec|e- go|vi- xe\- *|ro.||
 z4 | z4 | z4 | z4 | z4 | z4 | z4 | z4 | z4 | z4 |[M:2/4] z4 ||[M:2/2] A4 (G2 F2) | G4 (A2 B2) | %183
w: |||||||||||Vir- go *|vir- gi\- *|
 A6 G2 | F4 F4 | A4 =B4 | c4 (G2 F2) | G4 A4 | _B4 F4 | B6 B2 |[M:2/2] _A4 G4 | F6 F2 | E8 || %193
w: num prae-|cla- ra,|Mi- hi|jam non *|sis a-|ma- ra|Fac me|te- cum|plan- ge-|re.|
[M:2/4] z4 | z4 | z4 | z4 | z4 | z4 | z4 | z4 |[M:2/4] z4 | z4 | z4 | z4 || %205
w: ||||||||||||
[M:2/2] (A2 G2) (A2 B2) | c4 (B2 A2) | B6 B2 | B4 A4 | (A2 G2) (A2 B2) | c4 B2 A2 |[M:2/2] B4 B4 | %212
w: ~Fac * me *|pla- gis *|vul- ne-|ra- ri,|Fac * me *|cru- ce i-|ne- bri-|
 B4 A4 | (G2 A2) (B2 G2) | G4 F4 | (B2 c2) (d2 B2) | A4 (G2 F2) | (F4 E2) E2 | F8 ||[M:2/4] z4 | %220
w: a- ri,|Et * cru\- *|o- re,|et * cru\- *|o- re *|Fi\- * li-|i.||
 z4 | z4 |[M:2/4] z4 | z4 | z4 | z4 | z4 | z4 | z4 | z4 | z4 ||[M:2/2] A4 A4 | G4 G4 | _G4 G4 | %234
w: |||||||||||~~~Chris- te,|cum sit|hinc e-|
[M:2/2] G4 G4 | G4 G4 | G4 F4 | E4 E4 | F4 F4 | (A4 B2 c2) | B4 B4 | (=B4 c2 d2) | c4 c4 | B8 | %244
w: xi- re,|Da per|ma- trem|me ve-|ni- re|Ad * *|pal- mam,|ad * *|pal- mam,|ad|
 A4 G2 F2 | F4 E4 | F8 ||[M:2/4] z4 | z4 | z4 | z4 | z4 | z4 | z4 | z4 | z4 |[M:2/4] z4 | z4 | %258
w: pal- mam vi-|cto- ri-|ae.||||||||||||
 z4 ||[M:2/2] A8 | G8 | (F8- | F8 | F4 E2 D2 | E8) | F8 |] %266
w: |A-|men,|A\-||||men.|
V:3
 F4 F4 | F4 F4 | B,4 F2 (B,2 | C8) | F8 | F4 F4 | F4 F4 | B,4 =B,4 | C4 C4 | F4 F4 | %10
w: Sta- bat|Ma- ter|do- lo- ro\-||sa|Jux- ta|cru- cem|la- cri-|mo- sa,|Dum pen-|
[M:2/2] F4 B,4 | C6 C2 | F8 ||[M:2/4] z4 | z4 | z4 | z4 | z4 | z4 | z4 | z4 |[M:2/4] z4 | z4 | z4 | %24
w: de- bat|Fi- li-|us.||||||||||||
 z4 ||[M:2/2] F4 F4 | B,4 B,4 | B,4 B,4 | F4 F4 | F4 D4 | E4 C4 | D4 B,4 |[M:2/2] C4 C4 | F4 F4 | %34
w: |O quam|tri- stis|et af-|fli- cta|Fu- it|il- la|be- ne-|di- cta|Ma- ter,|
 B,4 B,4 | (D2 E2) F4 | (F2 ED) E4 | F8 ||[M:2/4] z4 | z4 | z4 | z4 |[M:2/4] z4 | z4 | z4 | z4 | %46
w: Ma- ter|U\- * ni-|ge\- * * ni-|ti!|||||||||
 z4 | z4 | z4 | z4 ||[M:2/2] F4 D4 | C4 C4 | F4 D4 |[M:2/2] C4 C4 | G4 F4 | E4 F4 | D4 D4 | %57
w: ||||Quis est|ho- mo|qui non|fle- ret,|Ma- trem|Chri- sti|si vi-|
 =B,4 C4 | ^F8 | G4 G4 | E8 | F4 F2 F2 | C6 C2 | F8 ||[M:2/4] z4 | z4 | z4 | z4 | z4 | z4 | z4 | %71
w: de- ret|In|tan- to,|in|tan- to sup-|pli- ci-|o?||||||||
 z4 | z4 | z4 | z4 | z4 ||[M:2/2] F4 B,4 | F4 F4 | B,4 C4 | F4 F4 | F4 F4 | F4 F4 | (E2 F2) G4 | %83
w: |||||Pro pec-|ca- tis|su- ae|gen- tis|Vi- dit|Je- sum|in * tor-|
 (F2 E2) D4 | D4 ^C4 | D4 E4 |[M:2/2] F4 ^F4 | G4 (D2 C2) | B,6 B,2 | A,8 ||[M:2/4] z4 | z4 | z4 | %93
w: men\- * tis,|Et fla-|gel- lis,|et fla-|gel- lis *|sub- di-|tum.||||
 z4 | z4 | z4 | z4 | z4 |[M:2/4] z4 | z4 | z4 | z4 ||[M:2/2] F4 E4 | F4 C4 | D6 D2 | C4 C4 | %106
w: |||||||||E- ja|Ma- ter,|fons a-|mo- ris,|
 C6 C2 | B,4 B,4 |[M:2/2] E6 E2 | F4 F4 | F6 F2 | (_E2 D2) C4 | _E6 E2 | D4 C4 | B,6 B,2 | F8 || %116
w: Me sen-|ti- re|vim do-|lo- ris|Fac, ut|te\- * cum,|fac ut|te- cum|lu- ge-|am|
[M:2/4] z4 | z4 | z4 | z4 |[M:2/4] z4 | z4 | z4 | z4 | z4 | z4 | z4 | z4 ||[M:2/2] F4 F4 | F4 F4 | %130
w: ||||||||||||San- cta|Ma- ter,|
 B,4 F4 | (F4 E4) |[M:2/2] F8 | F4 F4 | F4 F4 | D4 D4 | C4 C4 | C8 | C8 | C8 | C8 | C6 C2 | F8 || %143
w: i- stud|a\- *|gas,|Cru- ci-|fi- xi|fi- ge|pla- gas|Cor-|di|me-|o|va- li-|de.|
[M:2/4] z4 | z4 |[M:2/4] z4 | z4 | z4 | z4 | z4 | z4 | z4 | z4 | z4 | z4 ||[M:2/2] F4 D4 | C4 C4 | %157
w: ||||||||||||Fac me|te- cum,|
[M:2/2] (B,2 C2) (D2 _E2) | F4 F4 | F4 D4 | C4 C4 | (B,2 C2) (D2 _E2) | F4 F4 | B,4 F4 | E4 F4 | %165
w: pi\- * e, *|fle- re,|Cru- ci-|fi- xo|con\- * do\- *|le- re,|Do- nec|e- go,|
 F4 F4 | B,4 F4 | D6 D2 | C8 ||[M:2/4] z4 | z4 | z4 | z4 | z4 | z4 | z4 | z4 | z4 | z4 | z4 | %180
w: do- nec|e- go|vi- xe-|ro.||||||||||||
[M:2/4] z4 ||[M:2/2] F4 F4 | B,4 B,4 | C6 C2 | F4 F4 | F4 D4 | C4 (_E2 D2) | C4 F4 | B,4 B,4 | %189
w: |Vir- go|vir- gi-|num prae-|cla- ra,|Mi- hi|jam non *|sis a-|ma- ra|
 B,6 B,2 |[M:2/2] F4 E4 | F4 =B,4 | C8 ||[M:2/4] z4 | z4 | z4 | z4 | z4 | z4 | z4 | z4 | %201
w: Fac me|te- cum|plan- ge-|re.|||||||||
[M:2/4] z4 | z4 | z4 | z4 ||[M:2/2] F4 F4 | F4 F4 | (D2 C2) (D2 E2) | F4 F4 | F4 F4 | F4 F2 F2 | %211
w: ||||~Fac me|pla- gis|vul\- * ne\- *|ra- ri,|Fac me|cru- ce i-|
[M:2/2] (D2 C2) (D2 E2) | F4 F4 | G4 G4 | D4 D4 | B,4 B,4 | F4 B,4 | C6 C2 | F8 ||[M:2/4] z4 | z4 | %221
w: ne\- * bri\- *|a- ri,|Et cru-|o- re,|et cru-|o- re|Fi- li-|i.|||
 z4 |[M:2/4] z4 | z4 | z4 | z4 | z4 | z4 | z4 | z4 | z4 ||[M:2/2] F4 F4 | _E4 E4 | D4 D4 | %234
w: ||||||||||~~~Chris- te,|cum sit|hinc e-|
[M:2/2] G4 G4 | G4 F4 | E4 D4 | C4 C4 | F4 F4 | F8 | B,4 B,4 | G8 | C4 C4 | z4 E4 | F4 B,2 B,2 | %245
w: xi- re,|Da per|ma- trem|me ve-|ni- re|Ad-|pal- mam,|ad|pal- mam,|ad|pal- mam vi-|
 C4 C4 | F8 ||[M:2/4] z4 | z4 | z4 | z4 | z4 | z4 | z4 | z4 | z4 |[M:2/4] z4 | z4 | z4 || %259
w: cto- ri-|ae.|||||||||||||
[M:2/2] z4 (F4- | F4 E4) | D8 | (C4 D2 C2 | B,8 | C8) | F8 |] %266
w: A\-||men,|A\- * *|||men.|

